status_badges/svg/block_height.svg

<?xml version="1.0" encoding="UTF-8" standalone="no"?><!DOCTYPE svg PUBLIC "-//W3C//DTD SVG 1.1//EN" "http://www.w3.org/Graphics/SVG/1.1/DTD/svg11.dtd"><svg width="100%" height="100%" viewBox="0 0 115 20" version="1.1" xmlns="http://www.w3.org/2000/svg" xmlns:xlink="http://www.w3.org/1999/xlink" xml:space="preserve" xmlns:serif="http://www.serif.com/" style="fill-rule:evenodd;clip-rule:evenodd;stroke-linejoin:round;stroke-miterlimit:1.41421;"><path id="block_height" d="M115,5c0,-2.76 -2.24,-5 -5,-5l-105,0c-2.76,0 -5,2.24 -5,5l0,10c0,2.76 2.24,5 5,5l105,0c2.76,0 5,-2.24 5,-5l0,-10Z" style="fill:#404040;"/><clipPath id="_clip1"><path d="M115,5c0,-2.76 -2.24,-5 -5,-5l-105,0c-2.76,0 -5,2.24 -5,5l0,10c0,2.76 2.24,5 5,5l105,0c2.76,0 5,-2.24 5,-5l0,-10Z"/></clipPath><g clip-path="url(#_clip1)"><g id="Status-Blue"><rect id="Status-Blue1" serif:id="Status-Blue" x="61" y="0" width="75" height="20" style="fill:#0f91de;"/></g><g id="Gradient"><rect id="Gradient1" serif:id="Gradient" x="0" y="0" width="115" height="20" style="fill:url(#_Linear2);"/></g><g id="Layer_2"><path d="M10.738,11.374c-0.173,0 -0.334,-0.092 -0.421,-0.242l-0.894,-1.55c-0.087,-0.15 -0.087,-0.336 0,-0.486l0.894,-1.55c0.087,-0.15 0.248,-0.243 0.421,-0.243l1.825,0c0.173,0 0.334,0.093 0.421,0.243l0.895,1.55c0.086,0.15 0.086,0.336 0,0.486l-0.895,1.55c-0.087,0.15 -0.248,0.242 -0.421,0.242l-1.825,0Z" style="fill:#69c900;fill-rule:nonzero;"/><g><path d="M8.3,8.934c0.174,0 0.335,-0.093 0.421,-0.243l0.895,-1.549c0.087,-0.151 0.087,-0.336 0,-0.486l-1.116,-1.933l-2.176,1.188c-0.159,0.087 -0.257,0.256 -0.253,0.437c0.018,0.87 0.12,1.736 0.303,2.586l1.926,0Z" style="fill:#69c900;fill-rule:nonzero;"/><path d="M15.001,8.934c-0.174,0 -0.334,-0.093 -0.421,-0.243l-0.895,-1.549c-0.086,-0.151 -0.086,-0.336 0,-0.486l1.116,-1.933l2.176,1.188c0.159,0.087 0.257,0.256 0.253,0.437c-0.018,0.87 -0.12,1.736 -0.302,2.586l-1.927,0Z" style="fill:#69c900;fill-rule:nonzero;"/><path d="M11.883,3.13c-0.145,-0.079 -0.32,-0.079 -0.465,0l-2.207,1.205l1.106,1.916c0.087,0.15 0.248,0.243 0.421,0.243l1.825,0c0.173,0 0.334,-0.093 0.421,-0.243l1.106,-1.916l-2.207,-1.205Z" style="fill:#69c900;fill-rule:nonzero;"/><path d="M6.574,9.744c0.417,1.481 1.082,2.88 1.968,4.138l1.074,-1.86c0.087,-0.15 0.087,-0.335 0,-0.485l-0.895,-1.55c-0.087,-0.15 -0.247,-0.243 -0.421,-0.243l-1.726,0Z" style="fill:#69c900;fill-rule:nonzero;"/><path d="M16.727,9.744c-0.417,1.481 -1.082,2.88 -1.968,4.138l-1.074,-1.86c-0.086,-0.15 -0.086,-0.335 0,-0.485l0.895,-1.55c0.087,-0.15 0.247,-0.243 0.421,-0.243l1.726,0Z" style="fill:#69c900;fill-rule:nonzero;"/><path d="M10.738,12.184c-0.173,0 -0.334,0.093 -0.421,0.243l-1.246,2.158c0.671,0.834 1.436,1.586 2.282,2.242c0.174,0.135 0.42,0.136 0.595,0c0.846,-0.655 1.611,-1.408 2.282,-2.242l-1.246,-2.158c-0.087,-0.15 -0.248,-0.243 -0.421,-0.243l-1.825,0Z" style="fill:#69c900;fill-rule:nonzero;"/></g></g><g><use xlink:href="#_Image3" x="22.13" y="6.654" width="33.8px" height="10.675px" transform="matrix(0.994126,0,0,0.970459,0,0)"/><text x="21.001px" y="13.844px" style="font-family:'DejaVuSans', 'DejaVu Sans', sans-serif;font-size:11px;fill:#fff;">height</text></g><g><use xlink:href="#_Image4" x="66.016" y="6.915" width="43.989px" height="9.493px" transform="matrix(0.999756,0,0,0.949308,0,0)"/><text x="65.232px" y="13.779px" style="font-family:'DejaVuSans', 'DejaVu Sans', sans-serif;font-size:11px;fill:#fff;">630,040</text></g></g><defs><linearGradient id="_Linear2" x1="0" y1="0" x2="1" y2="0" gradientUnits="userSpaceOnUse" gradientTransform="matrix(1.15438e-15,-20,18.8525,1.22465e-15,55.6148,20)"><stop offset="0" style="stop-color:#bbb;stop-opacity:0"/><stop offset="1" style="stop-color:#bbb;stop-opacity:0.180392"/></linearGradient><image id="_Image3" width="34px" height="11px" xlink:href="data:image/png;base64,iVBORw0KGgoAAAANSUhEUgAAACIAAAALCAYAAAAa5F88AAAACXBIWXMAAA7EAAAOxAGVKw4bAAABtElEQVQ4jZ2U3U9TQRDFf6dcKLRKpTWGaBRrYjRINIRn44tP/u0+G4yaaE0DikkpCEIbOzzsWXLbXJB6kpvNfJ2Z2Zm9SHrHnJDUkPTmBn5Lkt5eYZOk9SzX/M2LEfDhhr5X8S8Ar7JQuLpV4DFwBnyLiHPrC+AJcAv4AexFxMQka8CB/RaBLrAM9ID1iNjNSSStARvAMfA9IkaWC0kvytU+BfZd2Fap6pfAEvAVaFnODdx3EgGvgYk5ngMPSxyFi+wDTeCZ9b+AsL6fC/ni7j4BHc+vcPKPwNC2tqQcI593gPMSR49p1IBdJ/4M3LP+xIUMgWFh5TAiAhi7wwLo+DZ2SqRnQMMEGS3g2PFIOpopZBwRp7b9IY3vEjmuKAszGDnhe9K158CJpGbJb8D0KFozPFXclDnh+hczAE6BTWCVtLDdCr8joCZpS9Ij0hL+E17635I2JLUXJDVISwaApBXgwJ3vA7eBB0CbNJqB92SRNHck9UljrFtXB/oecx34aT8BK6QXiKRD0g12svESVbKkmk9V+Ulq2lyXtC2pex1fBf+08n/hf8Fd4C+wB/QiYjwPxwUfWnx3Ix5fKAAAAABJRU5ErkJggg=="/><image id="_Image4" width="44px" height="10px" xlink:href="data:image/png;base64,iVBORw0KGgoAAAANSUhEUgAAACwAAAAKCAYAAADPcbwqAAAACXBIWXMAAA7EAAAOxAGVKw4bAAACJ0lEQVQ4jY2U3U9TQRDFf+deKNICRSRIHxoDIY1C0CdjfPC/N8YXY2JoNIrKRwIEK9DSQmux48POtZvrLTLJJpuZOZMzs2dHAJJWgQ1gFrgC3piZSdoA6kAKnAF7ZnbmmATYBFaAAbBjZm0KTNKS55aAE+CjmVku5wnwwMxe34ZL3bkNfAeaQBvoO2AE7AN7Troh6cBjdSf7HjCg4blFhF8CB8BXYA0YApc5YnVgAdi9DZcA68ARcGhmv4CLqPu2mV27/xiYA6Y8dt+Ldb3ZaUkzBWTL3tC+kzwElqJ4AjwGPgP6Hy4BqsA08ErSC+BhBnJZVCU9Ap4B38xsGBHuWLCRE68WDHgR6JrZyAfRcWxma8Ap0LsLLnGy88A74AuwLakUAe85kQpw490LKOPScet7Tt4qk/J8ijXCC90JlzjzIzPrAed+VqPEU2AHeAusS6p4x10nnVmZSJeRXRbkdfzeIPyZFT+SVJOUTsIlTjCFIAGCRrNnJ3ryATBirOFzgqbjiRRtiXzeHHARNSNgmbGul4FkEm4KaAFbkrqEtTYP/CC023AghKn3o+m0gE1JNx67yvTtG6RiZp/MbCBpKOkp8JOwPj94jVgKswR5NH1AFOFSSdeEidaA34Qdma21qpNZcOK7EakeQdM1xzcZa7zu92xnt3yCi4Rff+IkLTv+L0pmlsUm4xQslZQ4MPMn7k9jfxT/i8v5n+c+blzrnzpxTpEvxv0B1vL1CTjX0gIAAAAASUVORK5CYII="/></defs></svg>

<?xml version="1.0" encoding="UTF-8" standalone="no"?>
<!DOCTYPE svg PUBLIC "-//W3C//DTD SVG 1.1//EN" "http://www.w3.org/Graphics/SVG/1.1/DTD/svg11.dtd">
<svg width="100%" height="100%" viewBox="0 0 115 20" version="1.1" xmlns="http://www.w3.org/2000/svg" xmlns:xlink="http://www.w3.org/1999/xlink" xml:space="preserve" xmlns:serif="http://www.serif.com/" style="fill-rule:evenodd;clip-rule:evenodd;stroke-linejoin:round;stroke-miterlimit:1.41421;">
    <path id="block_height" d="M115,5C115,2.24 112.76,0 110,0L5,0C2.24,0 0,2.24 0,5L0,15C0,17.76 2.24,20 5,20L110,20C112.76,20 115,17.76 115,15L115,5Z" style="fill:#404040;"/>
    <clipPath id="_clip1">
        <path d="M115,5C115,2.24 112.76,0 110,0L5,0C2.24,0 0,2.24 0,5L0,15C0,17.76 2.24,20 5,20L110,20C112.76,20 115,17.76 115,15L115,5Z"/>
    </clipPath>
    <g clip-path="url(#_clip1)">
        <g id="Status-Blue">
            <rect id="Status-Blue1" serif:id="Status-Blue" x="61" y="0" width="75" height="20" style="fill:#0f91de;"/>
        </g>
        <g id="Gradient">
            <rect id="Gradient1" serif:id="Gradient" x="0" y="0" width="115" height="20" style="fill:url(#_Linear2);"/>
        </g>
        <g id="Layer_2">
            <path d="M10.738,11.374C10.565,11.374 10.404,11.282 10.317,11.132L9.423,9.582C9.336,9.432 9.336,9.246 9.423,9.096L10.317,7.546C10.404,7.396 10.565,7.303 10.738,7.303L12.563,7.303C12.736,7.303 12.897,7.396 12.984,7.546L13.879,9.096C13.965,9.246 13.965,9.432 13.879,9.582L12.984,11.132C12.897,11.282 12.736,11.374 12.563,11.374L10.738,11.374Z" style="fill:#69c900;fill-rule:nonzero;"/>
            <g>
                <path d="M8.3,8.934C8.474,8.934 8.635,8.841 8.721,8.691L9.616,7.142C9.703,6.991 9.703,6.806 9.616,6.656L8.5,4.723L6.324,5.911C6.165,5.998 6.067,6.167 6.071,6.348C6.089,7.218 6.191,8.084 6.374,8.934L8.3,8.934Z" style="fill:#69c900;fill-rule:nonzero;"/>
                <path d="M15.001,8.934C14.827,8.934 14.667,8.841 14.58,8.691L13.685,7.142C13.599,6.991 13.599,6.806 13.685,6.656L14.801,4.723L16.977,5.911C17.136,5.998 17.234,6.167 17.23,6.348C17.212,7.218 17.11,8.084 16.928,8.934L15.001,8.934Z" style="fill:#69c900;fill-rule:nonzero;"/>
                <path d="M11.883,3.13C11.738,3.051 11.563,3.051 11.418,3.13L9.211,4.335L10.317,6.251C10.404,6.401 10.565,6.494 10.738,6.494L12.563,6.494C12.736,6.494 12.897,6.401 12.984,6.251L14.09,4.335L11.883,3.13Z" style="fill:#69c900;fill-rule:nonzero;"/>
                <path d="M6.574,9.744C6.991,11.225 7.656,12.624 8.542,13.882L9.616,12.022C9.703,11.872 9.703,11.687 9.616,11.537L8.721,9.987C8.634,9.837 8.474,9.744 8.3,9.744L6.574,9.744Z" style="fill:#69c900;fill-rule:nonzero;"/>
                <path d="M16.727,9.744C16.31,11.225 15.645,12.624 14.759,13.882L13.685,12.022C13.599,11.872 13.599,11.687 13.685,11.537L14.58,9.987C14.667,9.837 14.827,9.744 15.001,9.744L16.727,9.744Z" style="fill:#69c900;fill-rule:nonzero;"/>
                <path d="M10.738,12.184C10.565,12.184 10.404,12.277 10.317,12.427L9.071,14.585C9.742,15.419 10.507,16.171 11.353,16.827C11.527,16.962 11.773,16.963 11.948,16.827C12.794,16.172 13.559,15.419 14.23,14.585L12.984,12.427C12.897,12.277 12.736,12.184 12.563,12.184L10.738,12.184Z" style="fill:#69c900;fill-rule:nonzero;"/>
            </g>
        </g>
        <text id="height-shadow" x="21.001px" y="14.857px" style="font-family:'DejaVuSans', 'DejaVu Sans', sans-serif;font-size:11px;fill-opacity:0.4;">height</text>
        <text x="21.001px" y="13.844px" style="font-family:'DejaVuSans', 'DejaVu Sans', sans-serif;font-size:11px;fill:#fff;">height</text>
        <text id="block-num-shadow" x="65.232px" y="14.764px" style="font-family:'DejaVuSans', 'DejaVu Sans', sans-serif;font-size:11px;fill-opacity:0.4;">630,040</text>
        <text x="65.232px" y="13.779px" style="font-family:'DejaVuSans', 'DejaVu Sans', sans-serif;font-size:11px;fill:#fff;">630,040</text>
    </g>
    <defs>
        <linearGradient id="_Linear2" x1="0" y1="0" x2="1" y2="0" gradientUnits="userSpaceOnUse" gradientTransform="matrix(1.15438e-15,-20,18.8525,1.22465e-15,55.6148,20)"><stop offset="0" style="stop-color:#bbb;stop-opacity:0"/><stop offset="1" style="stop-color:#bbb;stop-opacity:0.180392"/></linearGradient>
    </defs>
</svg>
